public/logos/middleby.svg

<svg width="300" height="42" viewBox="0 0 300 42" fill="none" xmlns="http://www.w3.org/2000/svg">
<g clip-path="url(#clip0_21_1026)">
<path d="M154.235 9.50492L147.421 27.0485C147.352 27.221 147.102 27.1692 147.102 26.9881L146.714 9.90168C146.697 9.33242 146.231 8.86666 145.662 8.86666H137.407C136.916 8.86666 136.502 9.21166 136.415 9.69467L131.025 40.107C130.913 40.7452 131.413 41.3404 132.068 41.3404H136.959C137.459 41.3404 137.882 40.9781 137.959 40.4865L141.358 17.9058C141.392 17.7074 141.685 17.7333 141.685 17.9317L141.97 40.2967C141.97 40.8746 142.453 41.3404 143.031 41.3404H146.74C147.162 41.3404 147.533 41.0816 147.688 40.6935L156.262 17.8368C156.331 17.6471 156.624 17.7333 156.581 17.9317L152.113 40.0897C151.984 40.7366 152.484 41.349 153.148 41.349H157.763C158.254 41.349 158.668 41.004 158.755 40.521L164.137 10.1087C164.249 9.47042 163.748 8.87528 163.093 8.87528H155.175C154.752 8.87528 154.382 9.12541 154.235 9.51354V9.50492Z" fill="#003250"/>
<path d="M167.587 9.69467L162.205 40.107C162.092 40.7452 162.593 41.3404 163.248 41.3404H168.156C168.648 41.3404 169.062 40.9953 169.148 40.5123L174.539 10.1001C174.651 9.46179 174.15 8.86666 173.495 8.86666H168.587C168.096 8.86666 167.682 9.21166 167.595 9.69467H167.587Z" fill="#003250"/>
<path d="M193.497 10.4192C191.383 8.85803 188.261 8.85803 185.665 8.85803H178.713C178.221 8.85803 177.807 9.20304 177.721 9.68605L172.339 40.0983C172.227 40.7366 172.727 41.3317 173.383 41.3317H181.741C184.078 41.3317 186.407 41.0643 188.46 39.7706C190.771 38.4768 192.013 36.1308 192.72 32.7583L195.248 18.4664C195.955 15.3441 195.877 11.9717 193.505 10.4106L193.497 10.4192ZM187.968 18.7338L186.131 29.3859C185.492 33.5432 185.035 35.6305 181.076 35.4235C180.662 35.4062 180.352 35.0181 180.421 34.6127L183.862 15.163C183.923 14.8266 184.233 14.5938 184.578 14.6196C187.726 14.8784 188.615 15.301 187.959 18.7338H187.968Z" fill="#003250"/>
<path d="M215.318 10.4192C213.205 8.85803 210.083 8.85803 207.487 8.85803H200.535C200.043 8.85803 199.629 9.20304 199.543 9.68605L194.161 40.0983C194.049 40.7366 194.549 41.3317 195.204 41.3317H203.554C205.891 41.3317 208.22 41.0643 210.273 39.7706C212.584 38.4768 213.826 36.1308 214.533 32.7583L217.061 18.4664C217.768 15.3441 217.69 11.9717 215.318 10.4106V10.4192ZM209.79 18.7338L207.952 29.3859C207.314 33.5518 207.09 35.6391 202.907 35.4235C202.493 35.4062 202.174 35.0181 202.251 34.6127L205.693 15.1716C205.753 14.8353 206.063 14.6024 206.408 14.6283C209.557 14.887 210.445 15.3096 209.79 18.7425V18.7338Z" fill="#003250"/>
<path d="M227.014 8.86666H222.106C221.615 8.86666 221.201 9.21166 221.114 9.69467L215.732 40.107C215.62 40.7452 216.12 41.3404 216.776 41.3404H230.516C231.007 41.3404 231.421 40.9953 231.508 40.5123L232.293 36.079C232.405 35.4408 231.904 34.8456 231.249 34.8456H224.504C224.073 34.8456 223.745 34.4575 223.823 34.0348L228.066 10.1001C228.178 9.46179 227.678 8.86666 227.023 8.86666H227.014Z" fill="#003250"/>
<path d="M251.458 26.9967L252.243 22.572C252.355 21.9338 251.854 21.3386 251.199 21.3386H244.428C244.006 21.3386 243.678 20.9591 243.738 20.5451L244.437 15.922C244.489 15.5943 244.765 15.3614 245.092 15.3614H253.027C253.519 15.3614 253.933 15.0164 254.019 14.5334L254.804 10.1087C254.916 9.47042 254.416 8.87528 253.761 8.87528H239.503C239.012 8.87528 238.598 9.22029 238.511 9.7033L233.121 40.1156C233.008 40.7538 233.509 41.349 234.164 41.349H248.948C249.439 41.349 249.853 41.004 249.94 40.521L250.725 36.0876C250.837 35.4494 250.336 34.8542 249.681 34.8542H241.918C241.487 34.8542 241.151 34.4489 241.237 34.0262L242.367 28.3681C242.427 28.0576 242.694 27.8334 243.014 27.8334H250.457C250.949 27.8334 251.363 27.4884 251.449 27.0053L251.458 26.9967Z" fill="#003250"/>
<path d="M267.242 8.86666H258.996C258.504 8.86666 258.09 9.21166 258.004 9.69467L252.622 40.107C252.51 40.7452 253.01 41.3404 253.666 41.3404H262.541C268.259 41.3404 272.348 38.4854 273.495 31.9821C274.176 27.8247 273.874 26.0048 270.718 24.1849H270.976C273.538 22.6238 275.047 20.2864 275.496 17.1727C276.643 10.6779 272.71 8.85803 267.25 8.85803L267.242 8.86666ZM266.457 31.2058C265.594 35.2769 264.421 35.3717 261.402 35.3631C260.98 35.3631 260.643 34.975 260.712 34.5524L261.851 27.8937C261.911 27.5574 262.213 27.3245 262.55 27.3504C265.336 27.5487 267.095 27.5574 266.457 31.2058ZM268.225 17.6988C267.595 21.2437 266.465 21.5629 263.723 21.5974C263.283 21.5974 262.946 21.2006 263.033 20.7694L264.162 15.1113C264.223 14.8008 264.499 14.5765 264.818 14.5765C267.147 14.5938 268.889 14.8008 268.234 17.6902L268.225 17.6988Z" fill="#003250"/>
<path d="M285.898 18.7166L284.38 9.75505C284.294 9.24616 283.854 8.87528 283.336 8.87528H278.187C277.54 8.87528 277.066 9.46179 277.195 10.0914L280.714 27.3935C280.74 27.5142 280.74 27.6436 280.714 27.773L278.661 40.1328C278.558 40.7711 279.058 41.3576 279.705 41.3576H284.88C285.38 41.3576 285.794 41.004 285.872 40.5123L287.985 27.7644C288.002 27.6436 288.046 27.5315 288.106 27.428L297.861 10.4451C298.258 9.75505 297.74 8.88391 296.938 8.88391H292.099C291.72 8.88391 291.375 9.09091 291.202 9.42729L286.381 18.8201C286.26 19.0443 285.924 18.984 285.881 18.7338L285.898 18.7166Z" fill="#003250"/>
<path d="M81.9389 0.0776257L0.439885 40.0379C-0.276003 40.3916 -0.060374 41.4611 0.73314 41.4611H74.5299C75.2544 41.4611 75.8841 40.9263 76.0135 40.2105L82.9826 0.862514C83.0861 0.267379 82.4823 -0.189754 81.9303 0.0862509L81.9389 0.0776257Z" fill="#003250"/>
<path d="M119.036 40.2105L126.005 0.862514C126.108 0.267379 125.505 -0.189754 124.953 0.0862509L43.4621 40.0379C42.7462 40.3916 42.9619 41.4611 43.7554 41.4611H117.552C118.277 41.4611 118.906 40.9263 119.036 40.2105Z" fill="#E22D3F"/>
</g>
<defs>
<clipPath id="clip0_21_1026">
<rect width="300" height="41.3403" fill="white"/>
</clipPath>
</defs>
</svg>

<svg xmlns="http://www.w3.org/2000/svg" width="300" height="42" fill="none" viewBox="0 0 300 42"><g clip-path="url(#a)"><path fill="#003250" d="m154.235 9.505-6.814 17.543c-.069.173-.319.121-.319-.06l-.388-17.086a1.064 1.064 0 0 0-1.052-1.035h-8.255c-.491 0-.905.345-.992.828l-5.39 30.412a1.06 1.06 0 0 0 1.043 1.233h4.891c.5 0 .923-.362 1-.854l3.399-22.58c.034-.199.327-.173.327.026l.285 22.365c0 .578.483 1.043 1.061 1.043h3.709c.422 0 .793-.258.948-.647l8.574-22.856c.069-.19.362-.104.319.095l-4.468 22.158a1.057 1.057 0 0 0 1.035 1.259h4.615c.491 0 .905-.345.992-.828l5.382-30.412a1.06 1.06 0 0 0-1.044-1.234h-7.918a.99.99 0 0 0-.94.639zm13.352.19-5.382 30.412a1.058 1.058 0 0 0 1.043 1.233h4.908a1 1 0 0 0 .992-.828l5.391-30.412a1.06 1.06 0 0 0-1.044-1.233h-4.908c-.491 0-.905.345-.992.828zm25.91.725c-2.114-1.562-5.236-1.562-7.832-1.562h-6.952a1 1 0 0 0-.992.828l-5.382 30.412a1.06 1.06 0 0 0 1.044 1.234h8.358c2.337 0 4.666-.268 6.719-1.561 2.311-1.294 3.553-3.64 4.26-7.013l2.528-14.292c.707-3.122.629-6.494-1.743-8.055zm-5.529 8.314-1.837 10.652c-.639 4.157-1.096 6.244-5.055 6.037a.7.7 0 0 1-.655-.81l3.441-19.45a.67.67 0 0 1 .716-.543c3.148.258 4.037.681 3.381 4.114zm27.35-8.314c-2.113-1.562-5.235-1.562-7.831-1.562h-6.952a1 1 0 0 0-.992.828l-5.382 30.412a1.06 1.06 0 0 0 1.043 1.234h8.35c2.337 0 4.666-.268 6.719-1.561 2.311-1.294 3.553-3.64 4.26-7.013l2.528-14.292c.707-3.122.629-6.494-1.743-8.055zm-5.528 8.314-1.838 10.652c-.638 4.166-.862 6.253-5.045 6.037a.697.697 0 0 1-.656-.81l3.442-19.441a.67.67 0 0 1 .715-.544c3.149.259 4.037.682 3.382 4.115zm17.224-9.867h-4.908c-.491 0-.905.345-.992.828l-5.382 30.412a1.06 1.06 0 0 0 1.044 1.233h13.74c.491 0 .905-.345.992-.828l.785-4.433a1.06 1.06 0 0 0-1.044-1.233h-6.745a.69.69 0 0 1-.681-.811l4.243-23.935a1.06 1.06 0 0 0-1.043-1.233zm24.444 18.13.785-4.425a1.06 1.06 0 0 0-1.044-1.233h-6.771a.7.7 0 0 1-.69-.794l.699-4.623a.66.66 0 0 1 .655-.56h7.935a1 1 0 0 0 .992-.829l.785-4.424a1.06 1.06 0 0 0-1.043-1.234h-14.258c-.491 0-.905.345-.992.828l-5.39 30.413a1.058 1.058 0 0 0 1.043 1.233h14.784c.491 0 .905-.345.992-.828l.785-4.433a1.06 1.06 0 0 0-1.044-1.234h-7.763a.7.7 0 0 1-.681-.828l1.13-5.658a.656.656 0 0 1 .647-.535h7.443a1 1 0 0 0 .992-.828zm15.784-18.13h-8.246a1 1 0 0 0-.992.828l-5.382 30.412a1.06 1.06 0 0 0 1.044 1.233h8.875c5.718 0 9.807-2.855 10.954-9.358.681-4.157.379-5.977-2.777-7.797h.258q3.845-2.342 4.52-7.012c1.147-6.495-2.786-8.315-8.246-8.315zm-.785 22.339c-.863 4.07-2.036 4.166-5.055 4.157a.705.705 0 0 1-.69-.81l1.139-6.66a.66.66 0 0 1 .699-.543c2.786.199 4.545.207 3.907 3.856m1.768-13.507c-.63 3.545-1.76 3.864-4.502 3.898a.696.696 0 0 1-.69-.828l1.129-5.658a.67.67 0 0 1 .656-.535c2.329.018 4.071.225 3.416 3.114zm17.673 1.018-1.518-8.962a1.056 1.056 0 0 0-1.044-.88h-5.149a1.01 1.01 0 0 0-.992 1.216l3.519 17.303a.9.9 0 0 1 0 .379l-2.053 12.36a1.06 1.06 0 0 0 1.044 1.225h5.175c.5 0 .914-.354.992-.846l2.113-12.748a.9.9 0 0 1 .121-.336l9.755-16.983c.397-.69-.121-1.561-.923-1.561h-4.839c-.379 0-.724.207-.897.543l-4.821 9.393c-.121.224-.457.164-.5-.086zM81.939.078l-81.5 39.96c-.715.354-.5 1.423.294 1.423H74.53c.724 0 1.354-.535 1.483-1.25L82.983.863A.727.727 0 0 0 81.93.086z"/><path fill="#e22d3f" d="M119.036 40.21 126.005.864a.727.727 0 0 0-1.052-.777l-81.49 39.952c-.717.354-.501 1.423.292 1.423h73.797c.725 0 1.354-.535 1.484-1.25"/></g><defs><clipPath id="a"><path fill="#fff" d="M0 0h300v41.34H0z"/></clipPath></defs></svg>
